public/images/provider-icons/icon-cakephp.svg

<?xml version="1.0" encoding="iso-8859-1"?>
<!-- Generator: Adobe Illustrator 17.1.0, SVG Export Plug-In . SVG Version: 6.00 Build 0)  -->
<!DOCTYPE svg PUBLIC "-//W3C//DTD SVG 1.1//EN" "http://www.w3.org/Graphics/SVG/1.1/DTD/svg11.dtd">
<svg version="1.1" id="cakephp" xmlns="http://www.w3.org/2000/svg" xmlns:xlink="http://www.w3.org/1999/xlink" x="0px" y="0px"
	 viewBox="0 0 60 60" style="enable-background:new 0 0 60 60;" xml:space="preserve">
<g id="Image_xA0_13">
	<g>
		<path style="fill-rule:evenodd;clip-rule:evenodd;fill:#888888;" d="M34.2723,34.5673l-0.0021,0.7065
			C34.5767,35.3586,34.3508,34.7585,34.2723,34.5673z M30.02,14c-9.8583,0-17.85,3.425-17.85,7.65l0.7963,8.7053
			c1.6753,2.2598,8.7047,4.1201,16.7734,4.1201c0.7742,0,1.8976,0.0076,2.8303,0.0153v4.9438
			c-0.933-0.0049-1.8584-0.0107-2.8303-0.0107c-7.7437,0-14.3704-3.8096-16.4677-6.6761l1.3642,8.2949
			C15.7584,45.2662,21.3745,48,30.02,48c4.0854,0,1.912-0.0039,4.2438-0.0039L34.2412,42.9H34.27v-3.217l11.7078,2.9577
			L47.83,21.3111C47.4133,17.2446,39.6113,14,30.02,14z M13.2989,21.4948c2.6562,7.0656,17.3718,5.3657,17.3718,5.3657
			l1.8594,2.4437C32.5301,29.3041,15.6364,29.7823,13.2989,21.4948z M43.4559,38.2283L34.27,35.9942v-1.4324
			c0.0012,0.0031,0.001,0.0024,0.0023,0.0056l0.0135-4.4674l9.5961,2.0098L43.4559,38.2283z M44.1709,29.9255l-10.5205-2.3138
			l-5.3014-7.1703l16.1752,3.8872C44.431,25.9858,44.3058,27.5632,44.1709,29.9255z"/>
	</g>
</g>
</svg>

<svg xmlns="http://www.w3.org/2000/svg" viewBox="0 0 60 60" enable-background="new 0 0 60 60"><path d="M34.272 34.567l-.002.707c.306.085.081-.515.002-.706zm-4.252-20.567c-9.858 0-17.85 3.425-17.85 7.65l.796 8.705c1.675 2.26 8.705 4.12 16.773 4.12.774 0 1.898.008 2.83.015v4.944c-.933-.005-1.858-.011-2.83-.011-7.744 0-14.37-3.81-16.468-6.676l1.364 8.295c1.122 4.224 6.738 6.957 15.384 6.957 4.085 0 1.912-.004 4.244-.004l-.023-5.096h.029v-3.217l11.708 2.958 1.852-21.33c-.417-4.067-8.219-7.311-17.81-7.311zm-16.721 7.495c2.656 7.066 17.372 5.366 17.372 5.366l1.859 2.444s-16.894.478-19.231-7.809zm30.157 16.733l-9.186-2.234v-1.432l.002.006.013-4.467 9.596 2.01-.426 6.118zm.715-8.303l-10.521-2.314-5.301-7.17 16.175 3.887c-.093 1.657-.218 3.235-.353 5.597z" fill-rule="evenodd" clip-rule="evenodd" fill="#888"/></svg>
